;FLAVOR:Marlin
;TIME:21368
;Filament used: 20.1234m
;Layer height: 0.2
;MINX:63.626
;MINY:36.122
;MINZ:0.15
;MAXX:186.374
;MAXY:173.883
;MAXZ:39.95
;Generated with Cura_SteamEngine 4.1.0
M82 ;absolute extrusion mode
G21 ; set units to millimeters
G90 ; use absolute positioning
M82 ; absolute extrusion mode
M104 S200 ; set extruder temp
M140 S45 ; set bed temp
M190 S45 ; wait for bed temp
M109 S200 ; wait for extruder temp
G28 W ; home all without mesh bed level
G80 ; mesh bed leveling
G92 E0.0 ; reset extruder distance position
G1 Y-3.0 F1000.0 ; go outside print area
G1 X60.0 E9.0 F1000.0 ; intro line
G1 X100.0 E21.5 F1000.0 ; intro line
G92 E0.0 ; reset extruder distance position
G92 E0
G92 E0
G1 F2100 E-0.8
;LAYER_COUNT:200
;LAYER:0
M107
G0 F3600 X65.853 Y70.16 Z0.15
;TYPE:SKIRT
G1 F2100 E0
G1 F1800 X66.434 Y69.625 E0.0197
G1 X67.373 Y68.955 E0.04848
G1 X119.594 Y37.249 E1.57244
G1 X120.289 Y36.874 E1.59214
G1 X121.018 Y36.571 E1.61183
G1 X121.774 Y36.343 E1.63153
G1 X122.55 Y36.193 E1.65124
G1 X123.336 Y36.122 E1.67093
G1 X124.126 Y36.131 E1.69064
G1 X124.91 Y36.22 E1.71032
G1 X125.682 Y36.387 E1.73002
G1 X126.433 Y36.632 E1.74973
G1 X127.391 Y37.076 E1.77607
G1 X180.767 Y66.331 E3.29441
G1 X180.809 Y66.354 E3.29561
G1 X181.023 Y66.473 E3.30172
G1 X181.693 Y66.891 E3.32142
G1 X182.317 Y67.375 E3.34111
G1 X182.889 Y67.92 E3.36082
G1 X183.403 Y68.519 E3.38051
G1 X183.853 Y69.167 E3.40019
G1 X184.236 Y69.858 E3.4199
G1 X184.548 Y70.584 E3.43961
G1 X184.784 Y71.337 E3.4593
G1 X184.942 Y72.111 E3.479
G1 X185.03 Y73.118 E3.50422
G1 X186.372 Y134.062 E5.02484
G1 X186.374 Y134.109 E5.02601
G1 X186.362 Y134.899 E5.04572
G1 X186.269 Y135.683 E5.06542
G1 X186.098 Y136.454 E5.08512
G1 X185.849 Y137.203 E5.10481
G1 X185.526 Y137.924 E5.12451
G1 X185.132 Y138.608 E5.1442
G1 X184.671 Y139.249 E5.1639
G1 X184.147 Y139.84 E5.1836
G1 X183.566 Y140.375 E5.2033
G1 X182.627 Y141.045 E5.23208
G1 X130.519 Y172.682 E6.75274
G1 X130.421 Y172.742 E6.7556
G1 X129.727 Y173.12 E6.77532
G1 X128.999 Y173.426 E6.79502
G1 X128.244 Y173.656 E6.8147
G1 X127.469 Y173.809 E6.83441
G1 X126.683 Y173.883 E6.8541
G1 X125.893 Y173.877 E6.87381
G1 X125.108 Y173.791 E6.89351
G1 X124.336 Y173.626 E6.9132
G1 X123.584 Y173.384 E6.93291
G1 X122.598 Y172.929 E6.96
G1 X69.119 Y143.606 E8.48141
G1 X69.035 Y143.56 E8.4838
G1 X68.934 Y143.503 E8.48669
G1 X68.267 Y143.08 E8.50639
G1 X67.646 Y142.593 E8.52608
G1 X67.078 Y142.045 E8.54577
G1 X66.567 Y141.442 E8.56549
G1 X66.121 Y140.791 E8.58517
G1 X65.742 Y140.098 E8.60487
G1 X65.436 Y139.37 E8.62457
G1 X65.204 Y138.615 E8.64428
G1 X65.05 Y137.84 E8.66399
G1 X64.97 Y136.882 E8.68797
G1 X63.627 Y75.91 E10.20929
G1 X63.626 Y75.891 E10.20976
G1 X63.638 Y75.101 E10.22947
G1 X63.731 Y74.317 E10.24917
G1 X63.902 Y73.546 E10.26887
G1 X64.151 Y72.797 E10.28856
G1 X64.474 Y72.076 E10.30826
G1 X64.868 Y71.392 E10.32795
G1 X65.329 Y70.751 E10.34765
G1 X65.853 Y70.16 E10.36735
G0 F3600 X66.252 Y70.327
G1 F1800 X66.829 Y69.819 E10.38653
G1 X67.581 Y69.297 E10.40936
G1 X119.802 Y37.591 E11.93332
G1 X120.479 Y37.226 E11.95251
G1 X121.19 Y36.934 E11.97168
G1 X121.928 Y36.717 E11.99087
G1 X122.685 Y36.578 E12.01007
G1 X123.452 Y36.518 E12.02926
G1 X124.221 Y36.539 E12.04845
G1 X124.983 Y36.639 E12.06762
G1 X125.731 Y36.817 E12.0868
G1 X126.457 Y37.072 E12.106
G1 X127.199 Y37.427 E12.12652
G1 X180.575 Y66.682 E13.64486
G1 X180.614 Y66.704 E13.64598
G1 X180.828 Y66.823 E13.65209
G1 X181.48 Y67.231 E13.67127
G1 X182.086 Y67.705 E13.69047
G1 X182.64 Y68.239 E13.70966
G1 X183.135 Y68.827 E13.72883
G1 X183.566 Y69.464 E13.74802
G1 X183.929 Y70.142 E13.7672
G1 X184.22 Y70.854 E13.78639
G1 X184.435 Y71.593 E13.80559
G1 X184.572 Y72.35 E13.82478
G1 X184.63 Y73.127 E13.84422
G1 X185.971 Y134.007 E15.36324
G1 X185.975 Y134.123 E15.36614
G1 X185.961 Y134.892 E15.38532
G1 X185.868 Y135.656 E15.40452
G1 X185.696 Y136.405 E15.42369
G1 X185.447 Y137.133 E15.44289
G1 X185.124 Y137.831 E15.46207
G1 X184.73 Y138.492 E15.48127
G1 X184.27 Y139.108 E15.50044
G1 X183.748 Y139.673 E15.51963
G1 X183.171 Y140.181 E15.53881
G1 X182.419 Y140.703 E15.56164
G1 X130.31 Y172.341 E17.08234
G1 X130.212 Y172.401 E17.0852
G1 X129.536 Y172.768 E17.10439
G1 X128.826 Y173.063 E17.12357
G1 X128.088 Y173.282 E17.14277
G1 X127.332 Y173.424 E17.16196
G1 X126.566 Y173.487 E17.18113
G1 X125.797 Y173.469 E17.20032
G1 X125.034 Y173.372 E17.21951
G1 X124.285 Y173.197 E17.2387
G1 X123.559 Y172.944 E17.25787
G1 X122.79 Y172.579 E17.27911
G1 X69.311 Y143.256 E18.80052
G1 X69.232 Y143.212 E18.80278
G1 X69.131 Y143.155 E18.80567
G1 X68.482 Y142.742 E18.82486
G1 X67.879 Y142.265 E18.84404
G1 X67.329 Y141.727 E18.86323
G1 X66.837 Y141.135 E18.88243
G1 X66.41 Y140.496 E18.9016
G1 X66.051 Y139.816 E18.92079
G1 X65.765 Y139.102 E18.93997
G1 X65.555 Y138.362 E18.95916
G1 X65.422 Y137.604 E18.97836
G1 X65.37 Y136.873 E18.99664
G1 X64.029 Y75.993 E20.51566
G1 X64.025 Y75.877 E20.51856
G1 X64.039 Y75.108 E20.53775
G1 X64.132 Y74.344 E20.55694
G1 X64.304 Y73.595 E20.57611
G1 X64.553 Y72.867 E20.59531
G1 X64.876 Y72.169 E20.61449
G1 X65.27 Y71.508 E20.63369
G1 X65.73 Y70.892 E20.65287
G1 X66.252 Y70.327 E20.67206
G0 F3600 X66.65 Y70.5
G1 F1800 X67.224 Y70.02 E20.69072
G1 X67.788 Y69.639 E20.7077
G1 X120.009 Y37.933 E22.23166
G1 X120.668 Y37.579 E22.25032
G1 X121.362 Y37.298 E22.269
G1 X122.081 Y37.092 E22.28765
G1 X122.818 Y36.965 E22.30631
G1 X123.564 Y36.916 E22.32496
G1 X124.312 Y36.948 E22.34363
G1 X125.052 Y37.059 E22.3623
G1 X125.775 Y37.249 E22.38095
G1 X126.475 Y37.515 E22.39963
G1 X127.006 Y37.778 E22.41441
G1 X180.382 Y67.033 E23.93276
G1 X180.42 Y67.053 E23.93383
G1 X180.634 Y67.172 E23.93994
G1 X181.267 Y67.57 E23.95859
G1 X181.855 Y68.034 E23.97727
G1 X182.389 Y68.557 E23.99592
G1 X182.865 Y69.134 E24.01458
G1 X183.276 Y69.759 E24.03324
G1 X183.618 Y70.424 E24.05189
G1 X183.888 Y71.122 E24.07056
G1 X184.081 Y71.845 E24.08922
G1 X184.196 Y72.584 E24.10788
G1 X184.23 Y73.136 E24.12168
G1 X185.571 Y134.021 E25.64083
G1 X185.575 Y134.137 E25.64372
G1 X185.561 Y134.885 E25.66239
G1 X185.467 Y135.627 E25.68104
G1 X185.294 Y136.355 E25.69971
G1 X185.045 Y137.06 E25.71836
G1 X184.722 Y137.735 E25.73703
G1 X184.328 Y138.371 E25.75569
G1 X183.869 Y138.962 E25.77436
G1 X183.35 Y139.5 E25.793
G1 X182.776 Y139.98 E25.81167
G1 X182.212 Y140.362 E25.82866
G1 X130.079 Y172.014 E27.35004
G1 X130.003 Y172.06 E27.35226
G1 X129.345 Y172.416 E27.37092
G1 X128.653 Y172.7 E27.38958
G1 X127.934 Y172.908 E27.40825
G1 X127.198 Y173.038 E27.4269
G1 X126.452 Y173.089 E27.44555
G1 X125.704 Y173.06 E27.46422
G1 X124.964 Y172.952 E27.48288
G1 X124.24 Y172.765 E27.50153
G1 X123.539 Y172.502 E27.52021
G1 X122.983 Y172.228 E27.53567
G1 X69.504 Y142.905 E29.05708
G1 X69.429 Y142.863 E29.05923
G1 X69.328 Y142.806 E29.06212
G1 X68.697 Y142.404 E29.08078
G1 X68.112 Y141.937 E29.09946
G1 X67.581 Y141.411 E29.1181
G1 X67.109 Y140.83 E29.13677
G1 X66.702 Y140.203 E29.15542
G1 X66.364 Y139.535 E29.1741
G1 X66.099 Y138.836 E29.19274
G1 X65.91 Y138.112 E29.21141
G1 X65.799 Y137.372 E29.23007
G1 X65.77 Y136.864 E29.24277
G1 X64.429 Y75.979 E30.76192
G1 X64.425 Y75.863 E30.76481
G1 X64.439 Y75.115 E30.78348
G1 X64.533 Y74.373 E30.80213
G1 X64.706 Y73.645 E30.8208
G1 X64.955 Y72.94 E30.83945
G1 X65.278 Y72.265 E30.85812
G1 X65.672 Y71.629 E30.87678
G1 X66.131 Y71.038 E30.89545
G1 X66.65 Y70.5 E30.91409
G0 F3600 X66.531 Y71.19
G1 F1800 X67.047 Y70.679 E30.93221
G1 X67.617 Y70.229 E30.95032
G1 X67.996 Y69.98 E30.96164
G1 X120.217 Y38.274 E32.4856
G1 X120.857 Y37.932 E32.5037
G1 X121.532 Y37.662 E32.52183
G1 X122.232 Y37.468 E32.53995
G1 X122.949 Y37.353 E32.55807
G1 X123.674 Y37.316 E32.57618
G1 X124.399 Y37.36 E32.59429
G1 X125.115 Y37.483 E32.61242
G1 X125.813 Y37.683 E32.63053
G1 X126.485 Y37.96 E32.64866
G1 X126.814 Y38.128 E32.65788
G1 X180.19 Y67.383 E34.17622
G1 X180.226 Y67.403 E34.17725
G1 X180.44 Y67.522 E34.18336
G1 X181.054 Y67.909 E34.20146
G1 X181.622 Y68.362 E34.21958
G1 X182.137 Y68.874 E34.2377
G1 X182.593 Y69.44 E34.25583
G1 X182.983 Y70.052 E34.27393
G1 X183.304 Y70.704 E34.29206
G1 X183.552 Y71.387 E34.31019
G1 X183.722 Y72.093 E34.3283
G1 X183.83 Y73.145 E34.35468
G1 X185.171 Y134.035 E35.87396
G1 X185.175 Y134.151 E35.87685
G1 X185.16 Y134.877 E35.89497
G1 X185.065 Y135.597 E35.91308
G1 X184.892 Y136.302 E35.93119
G1 X184.643 Y136.984 E35.9493
G1 X184.319 Y137.635 E35.96744
G1 X183.927 Y138.246 E35.98555
G1 X183.469 Y138.81 E36.00367
G1 X182.953 Y139.321 E36.02179
G1 X182.383 Y139.771 E36.03991
G1 X182.004 Y140.02 E36.05122
G1 X129.871 Y171.672 E37.5726
G1 X129.794 Y171.719 E37.57485
G1 X129.155 Y172.063 E37.59296
G1 X128.481 Y172.336 E37.6111
G1 X127.782 Y172.532 E37.6292
G1 X127.066 Y172.651 E37.64731
G1 X126.34 Y172.69 E37.66545
G1 X125.615 Y172.649 E37.68356
G1 X124.899 Y172.529 E37.70167
G1 X124.2 Y172.331 E37.71979
G1 X123.527 Y172.057 E37.73792
G1 X123.175 Y171.877 E37.74778
G1 X69.696 Y142.554 E39.2692
G1 X69.625 Y142.515 E39.27122
G1 X69.524 Y142.458 E39.27411
G1 X68.912 Y142.067 E39.29223
G1 X68.347 Y141.61 E39.31035
G1 X67.835 Y141.095 E39.32847
G1 X67.383 Y140.526 E39.3466
G1 X66.996 Y139.911 E39.36472
G1 X66.68 Y139.258 E39.38282
G1 X66.437 Y138.573 E39.40095
G1 X66.27 Y137.866 E39.41907
G1 X66.17 Y136.855 E39.44441
G1 X64.829 Y75.965 E40.96369
G1 X64.825 Y75.849 E40.96658
G1 X64.84 Y75.123 E40.9847
G1 X64.935 Y74.403 E41.00281
G1 X65.108 Y73.698 E41.02092
G1 X65.357 Y73.016 E41.03903
G1 X65.681 Y72.365 E41.05717
G1 X66.073 Y71.754 E41.07528
G1 X66.531 Y71.19 E41.0934
G0 F3600 X66.93 Y71.347
G1 F1800 X67.444 Y70.866 E41.11096
G1 X68.203 Y70.322 E41.13426
G1 X120.424 Y38.616 E42.65822
G1 X121.046 Y38.286 E42.67578
G1 X121.701 Y38.028 E42.69334
G1 X122.381 Y37.846 E42.7109
G1 X123.077 Y37.742 E42.72846
G1 X123.781 Y37.718 E42.74603
G1 X124.483 Y37.773 E42.76359
G1 X125.173 Y37.908 E42.78113
G1 X125.845 Y38.12 E42.79871
G1 X126.622 Y38.479 E42.82006
G1 X179.998 Y67.734 E44.33841
G1 X180.031 Y67.752 E44.33935
G1 X180.245 Y67.871 E44.34545
G1 X180.84 Y68.248 E44.36302
G1 X181.388 Y68.689 E44.38057
G1 X181.883 Y69.19 E44.39814
G1 X182.318 Y69.744 E44.41571
G1 X182.687 Y70.343 E44.43326
G1 X182.986 Y70.981 E44.45084
G1 X183.211 Y71.648 E44.4684
G1 X183.358 Y72.336 E44.48595
G1 X183.43 Y73.153 E44.5064
G1 X184.771 Y134.048 E46.0258
G1 X184.775 Y134.164 E46.0287
G1 X184.76 Y134.868 E46.04627
G1 X184.664 Y135.566 E46.06384
G1 X184.49 Y136.248 E46.0814
G1 X184.24 Y136.906 E46.09896
G1 X183.917 Y137.531 E46.11651
G1 X183.525 Y138.116 E46.13407
G1 X183.07 Y138.653 E46.15163
G1 X182.556 Y139.134 E46.16919
G1 X181.797 Y139.678 E46.19248
G1 X129.664 Y171.33 E47.71387
G1 X129.585 Y171.378 E47.71618
G1 X128.965 Y171.711 E47.73373
G1 X128.311 Y171.971 E47.75129
G1 X127.632 Y172.156 E47.76884
G1 X126.936 Y172.262 E47.7864
G1 X126.232 Y172.289 E47.80398
G1 X125.53 Y172.236 E47.82154
G1 X124.839 Y172.104 E47.83909
G1 X124.167 Y171.894 E47.85665
G1 X123.367 Y171.526 E47.87862
G1 X69.888 Y142.203 E49.40003
G1 X69.822 Y142.166 E49.40192
G1 X69.721 Y142.109 E49.40481
G1 X69.128 Y141.729 E49.42238
G1 X68.583 Y141.284 E49.43993
G1 X68.091 Y140.78 E49.4575
G1 X67.66 Y140.224 E49.47505
G1 X67.295 Y139.622 E49.49261
G1 X67 Y138.983 E49.51017
G1 X66.779 Y138.314 E49.52774
G1 X66.636 Y137.625 E49.5453
G1 X66.57 Y136.847 E49.56477
G1 X65.229 Y75.952 E51.08418
G1 X65.225 Y75.836 E51.08707
G1 X65.24 Y75.132 E51.10464
G1 X65.336 Y74.434 E51.12221
G1 X65.51 Y73.752 E51.13977
G1 X65.76 Y73.094 E51.15733
G1 X66.083 Y72.469 E51.17488
G1 X66.475 Y71.884 E51.19244
G1 X66.93 Y71.347 E51.21
G0 F3600 X67.329 Y71.511
G1 F1800 X67.839 Y71.06 E51.22698
G1 X68.411 Y70.664 E51.24434
G1 X120.632 Y38.958 E52.7683
G1 X121.234 Y38.64 E52.78528
G1 X121.869 Y38.394 E52.80227
G1 X122.528 Y38.224 E52.81925
G1 X123.203 Y38.133 E52.83624
G1 X123.883 Y38.121 E52.8532
G1 X124.561 Y38.189 E52.8702
G1 X125.226 Y38.336 E52.88719
G1 X125.869 Y38.56 E52.90417
G1 X126.43 Y38.83 E52.9197
G1 X179.806 Y68.085 E54.43805
G1 X179.837 Y68.102 E54.43893
G1 X180.051 Y68.221 E54.44504
G1 X180.625 Y68.586 E54.46201
G1 X181.153 Y69.016 E54.47899
G1 X181.627 Y69.505 E54.49598
G1 X182.04 Y70.046 E54.51296
G1 X182.387 Y70.632 E54.52995
G1 X182.663 Y71.255 E54.54695
G1 X182.864 Y71.905 E54.56392
G1 X182.988 Y72.575 E54.58092
G1 X183.031 Y73.162 E54.5956
G1 X184.372 Y134.062 E56.11512
G1 X184.376 Y134.178 E56.11802
G1 X184.359 Y134.859 E56.13501
G1 X184.263 Y135.533 E56.15199
G1 X184.088 Y136.191 E56.16898
G1 X183.838 Y136.824 E56.18596
G1 X183.515 Y137.424 E56.20295
G1 X183.124 Y137.981 E56.21993
G1 X182.671 Y138.489 E56.23691
G1 X182.161 Y138.94 E56.25389
G1 X181.589 Y139.336 E56.27125
G1 X129.456 Y170.988 E57.79263
G1 X129.376 Y171.037 E57.79497
G1 X128.776 Y171.357 E57.81193
G1 X128.142 Y171.606 E57.82892
G1 X127.483 Y171.778 E57.84591
G1 X126.809 Y171.872 E57.86289
G1 X126.128 Y171.886 E57.87988
G1 X125.45 Y171.82 E57.89687
G1 X124.785 Y171.675 E57.91385
G1 X124.141 Y171.454 E57.93084
G1 X123.559 Y171.176 E57.94693
G1 X70.08 Y141.853 E59.46834
G1 X70.018 Y141.818 E59.47012
G1 X69.917 Y141.761 E59.47301
G1 X69.345 Y141.392 E59.48999
G1 X68.82 Y140.959 E59.50696
G1 X68.349 Y140.467 E59.52395
G1 X67.939 Y139.923 E59.54095
G1 X67.596 Y139.335 E59.55793
G1 X67.324 Y138.711 E59.57491
G1 X67.127 Y138.059 E59.5919
G1 X67.008 Y137.389 E59.60887
G1 X66.969 Y136.838 E59.62265
G1 X65.626 Y75.866 E61.14397
G1 X65.624 Y75.822 E61.14507
G1 X65.641 Y75.141 E61.16207
G1 X65.737 Y74.467 E61.17905
G1 X65.912 Y73.809 E61.19603
G1 X66.162 Y73.176 E61.21301
G1 X66.485 Y72.576 E61.23001
G1 X66.876 Y72.019 E61.24698
G1 X67.329 Y71.511 E61.26396
G0 F3600 X67.728 Y71.682
G1 F1800 X68.234 Y71.263 E61.28035
G1 X68.618 Y71.006 E61.29188
G1 X120.839 Y39.3 E62.81584
G1 X121.421 Y38.994 E62.83224
G1 X122.035 Y38.761 E62.84862
G1 X122.673 Y38.604 E62.86501
G1 X123.325 Y38.525 E62.8814
G1 X123.982 Y38.527 E62.89778
G1 X124.634 Y38.608 E62.91417
G1 X125.271 Y38.768 E62.93056
G1 X125.884 Y39.004 E62.94694
G1 X126.237 Y39.181 E62.95679
G1 X179.613 Y68.436 E64.47514
G1 X179.642 Y68.452 E64.47597
G1 X179.856 Y68.571 E64.48207
G1 X180.41 Y68.924 E64.49846
G1 X180.917 Y69.342 E64.51485
G1 X181.369 Y69.819 E64.53124
G1 X181.76 Y70.347 E64.54763
G1 X182.083 Y70.919 E64.56402
G1 X182.336 Y71.525 E64.5804
G1 X182.512 Y72.158 E64.59679
G1 X182.61 Y72.808 E64.61319
G1 X182.631 Y73.171 E64.62226
G1 X183.973 Y134.118 E66.14296
G1 X183.976 Y134.192 E66.1448
G1 X183.958 Y134.849 E66.1612
G1 X183.861 Y135.498 E66.17757
G1 X183.686 Y136.132 E66.19397
G1 X183.436 Y136.739 E66.21035
G1 X183.113 Y137.311 E66.22674
G1 X182.723 Y137.84 E66.24313
G1 X182.272 Y138.318 E66.25952
G1 X181.766 Y138.737 E66.27591
G1 X181.381 Y138.994 E66.28746
G1 X129.248 Y170.646 E67.80884
G1 X129.168 Y170.695 E67.81118
G1 X128.588 Y171.004 E67.82758
G1 X127.974 Y171.239 E67.84398
G1 X127.337 Y171.399 E67.86036
G1 X126.685 Y171.479 E67.87675
G1 X126.028 Y171.481 E67.89314
G1 X125.376 Y171.402 E67.90952
G1 X124.738 Y171.244 E67.92591
G1 X124.124 Y171.011 E67.9423
G1 X123.752 Y170.825 E67.95267
G1 X70.273 Y141.502 E69.47409
G1 X70.215 Y141.47 E69.47574
G1 X70.114 Y141.413 E69.47863
G1 X69.563 Y141.056 E69.49501
G1 X69.059 Y140.634 E69.51141
G1 X68.609 Y140.155 E69.5278
G1 X68.222 Y139.624 E69.54419
G1 X67.902 Y139.051 E69.56056
G1 X67.653 Y138.442 E69.57697
G1 X67.481 Y137.808 E69.59336
G1 X67.387 Y137.158 E69.60974
G1 X67.369 Y136.829 E69.61796
G1 X66.026 Y75.857 E71.13929
G1 X66.024 Y75.808 E71.14051
G1 X66.042 Y75.151 E71.1569
G1 X66.139 Y74.502 E71.17327
G1 X66.314 Y73.868 E71.18968
G1 X66.564 Y73.261 E71.20606
G1 X66.887 Y72.689 E71.22244
G1 X67.277 Y72.16 E71.23884
G1 X67.728 Y71.682 E71.25523
G0 F3600 X67.677 Y72.308
G1 F1800 X68.125 Y71.862 E71.271
G1 X68.826 Y71.348 E71.29268
G1 X121.047 Y39.642 E72.81664
G1 X121.607 Y39.349 E72.83241
G1 X122.2 Y39.129 E72.84819
G1 X122.815 Y38.985 E72.86394
G1 X123.444 Y38.92 E72.87972
G1 X124.076 Y38.935 E72.89549
G1 X124.701 Y39.029 E72.91125
G1 X125.309 Y39.202 E72.92702
G1 X126.045 Y39.531 E72.94713
G1 X179.421 Y68.786 E74.46548
G1 X179.448 Y68.801 E74.46625
